public/images/tech-stack/docker.svg

<?xml version="1.0" encoding="utf-8"?><!-- Uploaded to: SVG Repo, www.svgrepo.com, Generator: SVG Repo Mixer Tools -->
<svg width="800px" height="800px" viewBox="0 0 24 24" xmlns="http://www.w3.org/2000/svg">
  <path fill="#0DB7ED" fill-rule="evenodd" d="M6.94221099,14.9002344 C6.9980621,14.9002344 7.05128211,14.9107588 7.10043586,14.9297745 C7.04721586,14.9606302 7.01109801,15.018335 7.01109801,15.0842919 C7.01109801,15.1828984 7.09098782,15.2626686 7.18959432,15.2626686 C7.25710599,15.2626686 7.31570779,15.2251754 7.34608506,15.1698027 C7.36743286,15.2214082 7.37939241,15.2780367 7.37939241,15.3374756 C7.37939241,15.578939 7.18361455,15.774657 6.94221099,15.774657 C6.70080744,15.774657 6.50496978,15.578939 6.50496978,15.3374756 C6.50496978,15.0959525 6.70080744,14.9002344 6.94221099,14.9002344 L6.94221099,14.9002344 Z M6.94221099,16.0853662 C6.52978585,16.0853662 6.19420083,15.7499008 6.19420083,15.3374756 C6.19420083,14.9250505 6.52978585,14.5895253 6.94221099,14.5895253 C7.35457634,14.5895253 7.69010156,14.9250505 7.69010156,15.3374756 C7.69010156,15.7499008 7.35457634,16.0853662 6.94221099,16.0853662 L6.94221099,16.0853662 Z M20.3859431,11.1838037 C18.2619865,16.8117894 13.4653093,19.318631 7.81023526,19.318631 C5.13823222,19.318631 3.00656172,18.3995992 1.64323262,16.8672219 L1.65327865,16.8605843 C2.04609012,16.880497 2.39758135,16.8872541 2.75439457,16.8872541 C3.08065114,16.8872541 3.39979178,16.8838457 3.6953721,16.8672219 C3.72108514,16.8657867 3.75325633,16.8621989 3.77878997,16.8605843 C3.77902916,16.8605245 3.86998155,16.8546046 3.82549202,16.853887 C4.57667146,16.8075437 5.15892224,16.7031368 5.70188589,16.5482008 C5.70200548,16.548141 5.70212508,16.548141 5.70224467,16.5480812 C5.80091098,16.5198567 5.89658739,16.4901372 5.98825735,16.4583846 C6.09081051,16.4228049 6.14510687,16.3108635 6.109587,16.2083104 C6.07406714,16.1056974 5.96218553,16.0512815 5.85957258,16.0869807 C5.16992503,16.3259326 4.26010213,16.4574876 3.14505333,16.4821841 L3.14475434,16.4821841 C2.57739321,16.4947416 1.95717085,16.4797922 1.28450587,16.4365584 L1.28444607,16.4365584 C1.14529669,16.2507668 1.01649231,16.0576798 0.89869073,15.8577161 L0.71248051,15.5172277 C0.149903198,14.4112083 -0.0964037696,13.1191582 0.0343141305,11.7160038 L16.3965356,11.7160038 C17.7407294,11.7160038 19.0534696,11.2143604 19.6764427,10.6609919 C18.5601381,9.75332174 18.670764,7.59731356 19.3822377,6.774616 C19.9997093,7.270758 20.9954018,8.31584342 20.824141,9.64622396 C21.6011531,9.255625 22.9506091,9.06259783 24,9.66816973 C23.3411483,10.9541803 21.8929064,11.3383809 20.3859431,11.1838037 L20.3859431,11.1838037 Z M2.25508329,11.3188869 L4.46771995,11.3188869 L4.46771995,9.1061306 L2.25508329,9.1061306 L2.25508329,11.3188869 Z M4.80808879,11.3188869 L7.02096464,11.3188869 L7.02096464,9.1061306 L4.80808879,9.1061306 L4.80808879,11.3188869 Z M4.80808879,8.76576176 L7.02096464,8.76576176 L7.02096464,6.5530653 L4.80808879,6.5530653 L4.80808879,8.76576176 Z M7.36127369,11.3188869 L9.57402994,11.3188869 L9.57402994,9.1061306 L7.36127369,9.1061306 L7.36127369,11.3188869 Z M7.36127369,8.76576176 L9.57402994,8.76576176 L9.57402994,6.5530653 L7.36127369,6.5530653 L7.36127369,8.76576176 Z M9.91433899,11.3188869 L12.1270952,11.3188869 L12.1270952,9.1061306 L9.91433899,9.1061306 L9.91433899,11.3188869 Z M9.91433899,8.76576176 L12.1270952,8.76576176 L12.1270952,6.5530653 L9.91433899,6.5530653 L9.91433899,8.76576176 Z M9.91433899,6.21275626 L12.1270952,6.21275626 L12.1270952,4 L9.91433899,4 L9.91433899,6.21275626 Z M12.4674043,11.3188869 L14.6801605,11.3188869 L14.6801605,9.1061306 L12.4674043,9.1061306 L12.4674043,11.3188869 Z"/>
</svg>

<svg xmlns="http://www.w3.org/2000/svg" width="800" height="800" viewBox="0 0 24 24"><path fill="#0db7ed" fill-rule="evenodd" d="M6.942 14.9q.085 0 .158.03a.179.179 0 1 0 .246.24.438.438 0 1 1-.404-.27m0 1.185a.749.749 0 1 1 .002-1.497.749.749 0 0 1-.002 1.497m13.444-4.901c-2.124 5.628-6.92 8.135-12.576 8.135-2.672 0-4.803-.92-6.167-2.452l.01-.006c.393.02.745.026 1.101.026.327 0 .646-.003.941-.02l.084-.006s.091-.006.046-.007a8.6 8.6 0 0 0 1.877-.306q.149-.042.286-.09a.197.197 0 0 0-.128-.371c-.69.239-1.6.37-2.715.395a22 22 0 0 1-1.86-.045 6 6 0 0 1-.386-.58l-.187-.34C.15 14.411-.096 13.12.034 11.716h16.363c1.344 0 2.656-.502 3.28-1.055-1.117-.908-1.006-3.064-.295-3.886.618.496 1.613 1.54 1.442 2.871.777-.39 2.127-.583 3.176.022-.659 1.286-2.107 1.67-3.614 1.516m-18.13.135h2.212V9.106H2.255zm2.552 0h2.213V9.106H4.808zm0-2.553h2.213V6.553H4.808zm2.553 2.553h2.213V9.106H7.361zm0-2.553h2.213V6.553H7.361zm2.553 2.553h2.213V9.106H9.914zm0-2.553h2.213V6.553H9.914zm0-2.553h2.213V4H9.914zm2.553 5.106h2.213V9.106h-2.213z"/></svg>
